hero_logo.svg

<svg width="478" height="98" viewBox="0 0 478 98" fill="none" xmlns="http://www.w3.org/2000/svg">
<path d="M473.388 42.2058L461.738 9.50494C459.645 3.63349 453.868 0.142918 447.965 1.18222L415.084 6.97086C410.384 7.79899 406.126 10.3724 403.092 14.2191L381.859 41.1313C378.047 45.9634 378.047 52.9466 381.859 57.7788L403.09 84.691C406.124 88.5376 410.383 91.1111 415.082 91.9392L447.963 97.7278C453.868 98.7671 459.645 95.2766 461.736 89.4051L473.386 56.7043C475.051 52.0295 475.051 46.8826 473.386 42.2099L473.388 42.2058ZM462.513 63.3583L458.088 71.4326C457.79 71.9792 457.262 72.3435 456.664 72.4181L448.49 73.4387C445.693 73.7886 443.159 75.3289 441.484 77.6995L436.59 84.6289C436.232 85.134 435.669 85.4342 435.067 85.4363L426.174 85.4632C425.573 85.4632 425.005 85.1692 424.645 84.6641L419.714 77.7636C418.027 75.4035 415.484 73.8756 412.685 73.5443L404.504 72.5733C403.907 72.5029 403.377 72.1406 403.074 71.5961L398.606 63.5488C398.303 63.0043 398.266 62.3439 398.503 61.7642L401.747 53.8431C402.856 51.133 402.849 48.0648 401.723 45.363L398.436 37.4626C398.196 36.885 398.23 36.2246 398.529 35.678L402.953 27.6038C403.252 27.0572 403.78 26.6928 404.377 26.6183L412.552 25.5976C415.349 25.2477 417.883 23.7074 419.558 21.3369L424.452 14.4075C424.81 13.9023 425.373 13.6021 425.975 13.6001L434.869 13.5731C435.471 13.5731 436.038 13.8671 436.398 14.3723L441.329 21.2727C443.017 23.6329 445.56 25.1608 448.357 25.492L456.538 26.463C457.135 26.5334 457.665 26.8957 457.968 27.4402L462.436 35.4896C462.739 36.0341 462.776 36.6946 462.539 37.2743L459.295 45.1933C458.185 47.9033 458.193 50.9715 459.319 53.6754L462.606 61.5758C462.845 62.1534 462.812 62.8138 462.513 63.3604V63.3583Z" fill="#170000"/>
<path d="M472.749 89.2589C471.947 89.2589 471.24 89.1006 470.628 88.784C470.026 88.4675 469.556 88.0243 469.219 87.4544C468.881 86.8846 468.712 86.2198 468.712 85.4601V83.0858C468.712 82.326 468.881 81.6612 469.219 81.0914C469.556 80.5216 470.026 80.0784 470.628 79.7618C471.24 79.4453 471.947 79.287 472.749 79.287C473.561 79.287 474.268 79.4453 474.87 79.7618C475.471 80.0784 475.941 80.5216 476.278 81.0914C476.616 81.6612 476.785 82.326 476.785 83.0858V85.4601C476.785 86.2198 476.616 86.8846 476.278 87.4544C475.941 88.0243 475.471 88.4675 474.87 88.784C474.268 89.1006 473.561 89.2589 472.749 89.2589ZM472.749 88.4675C473.382 88.4675 473.936 88.3461 474.411 88.1034C474.885 87.8501 475.255 87.4966 475.518 87.0429C475.782 86.5892 475.914 86.0615 475.914 85.4601V83.0858C475.914 82.4843 475.782 81.962 475.518 81.5188C475.255 81.065 474.885 80.7115 474.411 80.4583C473.936 80.205 473.382 80.0784 472.749 80.0784C472.115 80.0784 471.561 80.205 471.087 80.4583C470.612 80.7115 470.242 81.065 469.979 81.5188C469.715 81.962 469.583 82.4843 469.583 83.0858V85.4601C469.583 86.0615 469.715 86.5892 469.979 87.0429C470.242 87.4966 470.612 87.8501 471.087 88.1034C471.561 88.3461 472.115 88.4675 472.749 88.4675ZM472.828 87.122C472.237 87.122 471.757 86.9585 471.387 86.6314C471.029 86.2937 470.849 85.8505 470.849 85.3018V83.2441C470.849 82.6954 471.029 82.2574 471.387 81.9303C471.757 81.5927 472.237 81.4238 472.828 81.4238C473.419 81.4238 473.893 81.5927 474.252 81.9303C474.611 82.2574 474.79 82.6954 474.79 83.2441H473.762C473.762 82.9592 473.672 82.7323 473.492 82.5635C473.324 82.3841 473.102 82.2944 472.828 82.2944C472.543 82.2944 472.311 82.3841 472.131 82.5635C471.962 82.7323 471.878 82.9592 471.878 83.2441V85.3018C471.878 85.5867 471.962 85.8188 472.131 85.9982C472.311 86.1671 472.543 86.2515 472.828 86.2515C473.102 86.2515 473.324 86.1671 473.492 85.9982C473.672 85.8188 473.762 85.5867 473.762 85.3018H474.79C474.79 85.8505 474.611 86.2937 474.252 86.6314C473.893 86.9585 473.419 87.122 472.828 87.122Z" fill="black"/>
<path d="M341.815 34.404C345.161 28.6914 349.2 25.8351 353.934 25.8351C356.627 25.8351 358.626 26.6512 359.932 28.2833C361.238 29.8339 361.891 31.5885 361.891 33.5471C361.891 35.0976 361.483 36.3626 360.666 37.3419C359.932 38.3212 358.749 38.8108 357.116 38.8108C355.811 38.8108 354.831 38.5252 354.179 37.9539C353.607 37.3011 353.118 36.5666 352.71 35.7505C352.383 34.9344 351.975 34.2408 351.485 33.6695C350.996 33.0166 350.18 32.6902 349.037 32.6902C347.568 32.6902 346.181 33.5879 344.875 35.3833C343.569 37.0971 342.468 39.4229 341.57 42.3608C340.754 45.2987 340.346 48.6446 340.346 52.3986V80.7984C340.346 82.5122 340.591 83.7363 341.08 84.4708C341.652 85.2053 342.794 85.6541 344.508 85.8173L347.813 86.1846C348.711 86.3478 349.16 86.7966 349.16 87.5311C349.16 88.5104 348.548 89 347.323 89H326.636C325.412 89 324.799 88.5512 324.799 87.6535C324.799 86.919 325.33 86.4294 326.391 86.1846L327.86 85.9397C329.574 85.6133 330.675 85.1236 331.165 84.4708C331.736 83.7363 332.022 82.5122 332.022 80.7984V39.6677C332.022 38.1988 331.777 37.2195 331.287 36.7298C330.879 36.1586 330.104 35.7913 328.962 35.6281L326.391 35.2609C325.33 35.1793 324.799 34.7304 324.799 33.9143C324.799 33.2615 325.452 32.8126 326.758 32.5678C329.288 32.1597 331.206 31.5069 332.512 30.6092C333.899 29.7115 335.327 28.6098 336.796 27.304C337.53 26.5696 338.142 26.2023 338.632 26.2023C339.367 26.2023 339.734 26.692 339.734 27.6713V34.2816C339.734 34.8528 339.979 35.2201 340.468 35.3833C340.958 35.4649 341.407 35.1385 341.815 34.404Z" fill="#170000"/>
<path d="M309.662 14.9404C307.949 14.9404 306.48 14.3283 305.256 13.1042C304.113 11.8801 303.542 10.3295 303.542 8.4525C303.542 6.5755 304.113 5.06574 305.256 3.92322C306.48 2.6991 307.949 2.08704 309.662 2.08704C311.376 2.08704 312.804 2.6991 313.947 3.92322C315.089 5.06574 315.661 6.5755 315.661 8.4525C315.661 10.3295 315.089 11.8801 313.947 13.1042C312.804 14.3283 311.376 14.9404 309.662 14.9404ZM299.38 89.0001C298.156 89.0001 297.544 88.5512 297.544 87.6535C297.544 86.919 298.074 86.4294 299.135 86.1846L300.604 85.9397C302.644 85.6133 303.95 85.1237 304.521 84.4708C305.092 83.7363 305.378 82.5122 305.378 80.7984V39.6677C305.378 38.1988 305.133 37.2195 304.644 36.7298C304.235 36.1586 303.46 35.7913 302.318 35.6281L299.747 35.2609C298.686 35.1793 298.156 34.7304 298.156 33.9143C298.156 33.2615 298.809 32.8126 300.114 32.5678C302.644 32.1598 304.684 31.5069 306.235 30.6092C307.785 29.7115 309.295 28.6098 310.764 27.3041C311.499 26.5696 312.111 26.2023 312.6 26.2023C313.335 26.2023 313.702 26.692 313.702 27.6713V80.7984C313.702 82.5122 313.947 83.7363 314.437 84.4708C314.926 85.2053 315.865 85.6541 317.252 85.8173L320.312 86.1846C321.21 86.3478 321.659 86.7966 321.659 87.5311C321.659 88.5104 321.047 89.0001 319.823 89.0001H299.38Z" fill="#170000"/>
<path d="M261.504 90.1018C258.076 90.1018 255.261 89.0408 253.057 86.919C250.854 84.7156 249.752 81.8185 249.752 78.2277C249.752 74.7186 250.854 71.4134 253.057 68.3123C255.261 65.1296 258.28 62.2733 262.116 59.7434C265.951 57.2135 270.317 55.1733 275.214 53.6228C276.275 53.2963 276.805 52.6027 276.805 51.5418V40.4022C276.805 36.485 276.193 33.7103 274.969 32.0781C273.745 30.3644 272.072 29.5075 269.95 29.5075C267.91 29.5075 266.033 30.446 264.319 32.323C262.687 34.1183 261.504 37.1787 260.769 41.5039C260.361 44.1154 259.463 46.0332 258.076 47.2573C256.77 48.3998 255.424 48.9711 254.036 48.9711C251.751 48.9711 250.609 47.8286 250.609 45.5435C250.609 43.1769 251.262 40.851 252.567 38.566C253.955 36.1994 255.75 34.0775 257.954 32.2005C260.157 30.2419 262.564 28.6914 265.176 27.5489C267.787 26.4063 270.399 25.8351 273.01 25.8351C281.09 25.8351 285.129 30.5276 285.129 39.9125V77.3708C285.129 80.7984 285.986 82.5122 287.7 82.5122C288.761 82.5122 289.74 81.8185 290.638 80.4312C291.535 78.9622 291.984 76.5139 291.984 73.0864C291.984 71.7807 292.515 71.1278 293.576 71.1278C294.555 71.1278 295.045 71.8215 295.045 73.2088C295.045 79.1662 293.984 83.4915 291.862 86.1846C289.822 88.796 287.496 90.1018 284.884 90.1018C282.926 90.1018 281.375 89.3265 280.233 87.7759C279.09 86.1437 278.315 84.2259 277.907 82.0225C277.825 81.2064 277.458 80.7984 276.805 80.7984C276.234 80.7168 275.663 81.084 275.091 81.9001C273.133 84.5932 271.133 86.6334 269.093 88.0207C267.053 89.4081 264.523 90.1018 261.504 90.1018ZM264.809 84.4708C266.931 84.4708 268.889 83.7363 270.685 82.2673C272.48 80.7168 273.949 78.6766 275.091 76.1467C276.234 73.6168 276.805 70.7605 276.805 67.5778V58.6417C276.805 57.0911 275.948 56.6423 274.234 57.2952C269.256 59.0905 265.38 61.5796 262.605 64.7623C259.912 67.8634 258.566 71.6174 258.566 76.0243C258.566 81.6553 260.647 84.4708 264.809 84.4708Z" fill="#170000"/>
<path d="M200.409 88.9999C199.185 88.9999 198.573 88.5511 198.573 87.6534C198.573 86.9189 199.103 86.4293 200.164 86.1845L202.98 85.6948C204.694 85.3684 205.795 84.9195 206.285 84.3483C206.856 83.777 207.142 82.6345 207.142 80.9207V8.94203C207.142 7.22825 206.856 6.08574 206.285 5.51447C205.795 4.94322 204.694 4.49437 202.98 4.16794L200.164 3.67829C199.103 3.43346 198.573 2.94381 198.573 2.20933C198.573 1.31164 199.185 0.862793 200.409 0.862793H222.811C224.035 0.862793 224.647 1.35244 224.647 2.33175C224.647 3.06622 224.198 3.51507 223.3 3.67829L219.995 4.16794C218.281 4.41276 217.139 4.86161 216.568 5.51447C216.078 6.16734 215.833 7.35067 215.833 9.06444V77.6156C215.833 80.5535 216.649 82.6753 218.281 83.981C219.995 85.2868 222.117 85.9396 224.647 85.9396C226.524 85.9396 228.442 85.5724 230.4 84.8379C232.44 84.0218 234.277 82.5529 235.909 80.4311C237.541 78.2276 238.765 75.0449 239.581 70.8829L241.173 62.6812C241.417 61.6203 242.029 61.0898 243.009 61.0898C244.151 61.0898 244.641 61.7835 244.478 63.1709L243.009 86.1845C242.845 88.0615 241.825 88.9999 239.948 88.9999H200.409Z" fill="#170000"/>
<path d="M156.134 88.9999C154.991 88.9999 154.42 88.5919 154.42 87.7758C154.42 86.9597 154.951 86.4293 156.012 86.1845L157.848 85.8172C160.296 85.246 160.949 83.8994 159.806 81.7776L151.115 64.6398C150.789 64.0686 150.381 63.7829 149.891 63.7829C149.483 63.7013 149.116 63.9869 148.789 64.6398L140.832 79.5742C139.037 83.0017 139.323 84.9603 141.689 85.45L144.872 86.1845C145.933 86.4293 146.463 86.9597 146.463 87.7758C146.463 88.5919 145.892 88.9999 144.75 88.9999H129.081C127.938 88.9999 127.367 88.5511 127.367 87.6534C127.367 86.7557 127.857 86.1845 128.836 85.9396L130.305 85.5724C131.855 85.1643 133.161 84.5523 134.222 83.7362C135.283 82.8385 136.63 80.8799 138.262 77.8604L147.32 61.2123C147.973 59.9881 148.055 58.8048 147.565 57.6623L135.936 34.7711C135.038 32.8941 134.263 31.6292 133.61 30.9763C133.039 30.3234 132.345 29.9154 131.529 29.7522L129.693 29.385C128.632 29.1401 128.101 28.6097 128.101 27.7936C128.101 26.9775 128.673 26.5695 129.815 26.5695H147.932C149.075 26.5695 149.646 26.9775 149.646 27.7936C149.646 28.6097 149.116 29.1401 148.055 29.385L146.219 29.7522C143.77 30.3234 143.117 31.67 144.26 33.7918L152.584 49.9503C152.91 50.5215 153.278 50.8072 153.686 50.8072C154.094 50.8072 154.461 50.5215 154.787 49.9503L162.132 35.9952C163.928 32.5677 163.642 30.6091 161.275 30.1194L158.093 29.385C157.032 29.1401 156.501 28.6097 156.501 27.7936C156.501 26.9775 157.072 26.5695 158.215 26.5695H173.884C175.026 26.5695 175.598 27.0183 175.598 27.916C175.598 28.8137 175.108 29.385 174.129 29.6298L172.66 29.997C171.109 30.3235 169.803 30.9355 168.742 31.8332C167.682 32.6493 166.335 34.6079 164.703 37.709L156.256 53.3778C155.522 54.602 155.481 55.8669 156.134 57.1726L168.13 80.7983C169.11 82.7569 169.885 84.0626 170.456 84.7155C171.027 85.2868 171.721 85.654 172.537 85.8172L174.373 86.1845C175.434 86.4293 175.965 86.9597 175.965 87.7758C175.965 88.5919 175.394 88.9999 174.251 88.9999H156.134Z" fill="#170000"/>
<path d="M95.0988 90.1018C91.6712 90.1018 88.8557 89.0408 86.6523 86.919C84.4489 84.7156 83.3472 81.8185 83.3472 78.2277C83.3472 74.7186 84.4489 71.4134 86.6523 68.3123C88.8557 65.1296 91.8753 62.2733 95.7109 59.7434C99.5465 57.2135 103.913 55.1733 108.809 53.6228C109.87 53.2963 110.4 52.6027 110.4 51.5418V40.4022C110.4 36.485 109.788 33.7103 108.564 32.0781C107.34 30.3644 105.667 29.5075 103.545 29.5075C101.505 29.5075 99.6281 30.446 97.9143 32.323C96.2821 34.1183 95.0988 37.1787 94.3643 41.5039C93.9563 44.1154 93.0586 46.0332 91.6712 47.2573C90.3655 48.3998 89.019 48.9711 87.6316 48.9711C85.3466 48.9711 84.2041 47.8286 84.2041 45.5435C84.2041 43.1769 84.8569 40.851 86.1627 38.566C87.55 36.1994 89.3454 34.0775 91.5488 32.2005C93.7522 30.2419 96.1597 28.6914 98.7712 27.5489C101.383 26.4063 103.994 25.8351 106.606 25.8351C114.685 25.8351 118.724 30.5276 118.724 39.9125V77.3708C118.724 80.7984 119.581 82.5122 121.295 82.5122C122.356 82.5122 123.335 81.8185 124.233 80.4312C125.131 78.9622 125.58 76.5139 125.58 73.0864C125.58 71.7807 126.11 71.1278 127.171 71.1278C128.15 71.1278 128.64 71.8215 128.64 73.2088C128.64 79.1662 127.579 83.4915 125.457 86.1846C123.417 88.796 121.091 90.1018 118.48 90.1018C116.521 90.1018 114.97 89.3265 113.828 87.7759C112.685 86.1437 111.91 84.2259 111.502 82.0225C111.42 81.2064 111.053 80.7984 110.4 80.7984C109.829 80.7168 109.258 81.084 108.687 81.9001C106.728 84.5932 104.729 86.6334 102.688 88.0207C100.648 89.4081 98.1183 90.1018 95.0988 90.1018ZM98.4039 84.4708C100.526 84.4708 102.484 83.7363 104.28 82.2673C106.075 80.7168 107.544 78.6766 108.687 76.1467C109.829 73.6168 110.4 70.7605 110.4 67.5778V58.6417C110.4 57.0911 109.543 56.6423 107.83 57.2952C102.852 59.0905 98.9752 61.5796 96.2005 64.7623C93.5074 67.8634 92.1609 71.6174 92.1609 76.0243C92.1609 81.6553 94.2419 84.4708 98.4039 84.4708Z" fill="#170000"/>
<path d="M37.56 87.7758C37.2336 87.7758 36.8664 87.6534 36.4583 87.4086C36.0503 87.1638 35.7646 86.6333 35.6014 85.8172L17.1171 10.7782C17.0355 10.207 16.7907 9.96214 16.3826 10.0437C15.9746 10.0437 15.7706 10.3294 15.7706 10.9006L13.3223 78.4725C13.2407 80.7575 13.6079 82.5121 14.424 83.7362C15.2401 84.8787 16.6683 85.6132 18.7085 85.9396L20.2998 86.1845C21.3608 86.2661 21.8912 86.7557 21.8912 87.6534C21.8912 88.5511 21.2791 88.9999 20.055 88.9999H2.55C1.32587 88.9999 0.713806 88.5511 0.713806 87.6534C0.713806 86.7557 1.24426 86.2661 2.30517 86.1845L3.89654 85.9396C6.01836 85.6132 7.4465 84.8787 8.18098 83.7362C8.99707 82.5121 9.44591 80.7575 9.52752 78.4725L11.9758 8.94203C12.0574 7.22825 11.8126 6.08574 11.2413 5.51447C10.67 4.94322 9.44591 4.49437 7.56892 4.16794L4.75343 3.67829C3.69252 3.43346 3.16206 2.94381 3.16206 2.20933C3.16206 1.31164 3.77412 0.862793 4.99825 0.862793H19.6878C22.2176 0.862793 23.7682 2.08692 24.3395 4.53517L39.1514 65.6191C39.3146 66.1904 39.5594 66.476 39.8859 66.476C40.2939 66.476 40.5387 66.1904 40.6203 65.6191L56.0443 3.92311C56.534 1.8829 57.8397 0.862793 59.9616 0.862793H74.4063C75.6304 0.862793 76.2425 1.31164 76.2425 2.20933C76.2425 2.94381 75.712 3.43346 74.6511 3.67829L71.8356 4.16794C70.1218 4.49437 68.9793 4.94322 68.408 5.51447C67.8368 6.08574 67.5919 7.22825 67.6736 8.94203L70.1218 80.9207C70.2034 82.6345 70.489 83.777 70.9787 84.3483C71.4684 84.9195 72.5701 85.3684 74.2838 85.6948L77.0993 86.1845C78.1602 86.4293 78.6907 86.9189 78.6907 87.6534C78.6907 88.5511 78.0786 88.9999 76.8545 88.9999H54.6978C53.4737 88.9999 52.8616 88.5511 52.8616 87.6534C52.8616 86.9189 53.3921 86.4293 54.453 86.1845L57.2685 85.6948C58.9823 85.3684 60.1248 84.9195 60.696 84.3483C61.2673 83.777 61.5121 82.6345 61.4305 80.9207L59.3495 10.9006C59.3495 10.3294 59.1455 10.0437 58.7374 10.0437C58.411 9.96214 58.1662 10.1662 58.003 10.6558L39.3962 85.8172C39.233 86.6333 38.9474 87.1638 38.5393 87.4086C38.2129 87.6534 37.8865 87.7758 37.56 87.7758Z" fill="#170000"/>
</svg>

<svg xmlns="http://www.w3.org/2000/svg" width="478" height="98" fill="none"><path fill="#170000" d="m473.388 42.206-11.65-32.701c-2.093-5.872-7.87-9.362-13.773-8.323l-32.881 5.789c-4.7.828-8.958 3.401-11.992 7.248l-21.233 26.912c-3.812 4.832-3.812 11.816 0 16.648L403.09 84.69c3.034 3.847 7.293 6.42 11.992 7.248l32.881 5.789c5.905 1.04 11.682-2.451 13.773-8.323l11.65-32.7a21.65 21.65 0 0 0 0-14.495zm-10.875 21.152-4.425 8.075c-.298.546-.826.91-1.424.985l-8.174 1.02c-2.797.35-5.331 1.89-7.006 4.261l-4.894 6.93a1.88 1.88 0 0 1-1.523.807l-8.893.027a1.88 1.88 0 0 1-1.529-.799l-4.931-6.9c-1.687-2.36-4.23-3.888-7.029-4.22l-8.181-.97a1.9 1.9 0 0 1-1.43-.978l-4.468-8.047a2.07 2.07 0 0 1-.103-1.785l3.244-7.92a11.14 11.14 0 0 0-.024-8.481l-3.287-7.9a2.07 2.07 0 0 1 .093-1.785l4.424-8.074a1.9 1.9 0 0 1 1.424-.986l8.175-1.02c2.797-.35 5.331-1.89 7.006-4.261l4.894-6.93a1.88 1.88 0 0 1 1.523-.807l8.894-.027c.602 0 1.169.294 1.529.8l4.931 6.9c1.688 2.36 4.231 3.888 7.028 4.219l8.181.971c.597.07 1.127.433 1.43.977l4.468 8.05a2.07 2.07 0 0 1 .103 1.784l-3.244 7.92a11.15 11.15 0 0 0 .024 8.481l3.287 7.9a2.08 2.08 0 0 1-.093 1.785z"/><path fill="#000" d="M472.749 89.259q-1.203 0-2.121-.475a3.5 3.5 0 0 1-1.409-1.33q-.507-.855-.507-1.994v-2.374q0-1.14.507-1.995a3.5 3.5 0 0 1 1.409-1.33q.918-.474 2.121-.474 1.218 0 2.121.475a3.5 3.5 0 0 1 1.408 1.33q.507.854.507 1.994v2.374q0 1.14-.507 1.994a3.5 3.5 0 0 1-1.408 1.33q-.903.475-2.121.475m0-.791q.95 0 1.662-.365a2.75 2.75 0 0 0 1.107-1.06q.396-.681.396-1.583v-2.374q0-.903-.396-1.567a2.75 2.75 0 0 0-1.107-1.06q-.713-.38-1.662-.38-.951 0-1.662.38a2.74 2.74 0 0 0-1.108 1.06q-.396.664-.396 1.567v2.374q0 .903.396 1.583.395.68 1.108 1.06.711.365 1.662.365m.079-1.346q-.886 0-1.441-.49-.537-.507-.538-1.33v-2.058q0-.823.538-1.314.555-.506 1.441-.506t1.424.506q.538.49.538 1.314h-1.028q0-.428-.27-.68a.87.87 0 0 0-.664-.27.94.94 0 0 0-.697.27q-.253.252-.253.68v2.058q0 .427.253.696.27.254.697.253.411 0 .664-.253a.94.94 0 0 0 .27-.696h1.028q0 .822-.538 1.33-.538.49-1.424.49"/><path fill="#170000" d="M341.815 34.404q5.018-8.57 12.119-8.569 4.04 0 5.998 2.448 1.959 2.325 1.959 5.264 0 2.326-1.225 3.795-1.1 1.47-3.55 1.469-1.958 0-2.937-.857a10.3 10.3 0 0 1-1.469-2.203q-.49-1.225-1.225-2.081-.734-.98-2.448-.98-2.203 0-4.162 2.693-1.958 2.571-3.305 6.978-1.224 4.407-1.224 10.038v28.4q0 2.57.734 3.672.858 1.101 3.428 1.346l3.305.368q1.347.245 1.347 1.346 0 1.47-1.837 1.469h-20.687q-1.836 0-1.837-1.347 0-1.101 1.592-1.468l1.469-.245q2.57-.49 3.305-1.47.857-1.101.857-3.672v-41.13q0-2.205-.735-2.938-.612-.857-2.325-1.102l-2.571-.367q-1.592-.122-1.592-1.347 0-.979 1.959-1.346 3.795-.612 5.754-1.959 2.08-1.347 4.284-3.305 1.101-1.101 1.836-1.102 1.102 0 1.102 1.47v6.61q0 .856.734 1.101.735.123 1.347-.979M309.662 14.94q-2.57 0-4.406-1.836-1.714-1.836-1.714-4.651t1.714-4.53q1.836-1.836 4.406-1.836t4.285 1.836q1.713 1.714 1.714 4.53 0 2.815-1.714 4.651t-4.285 1.836M299.38 89q-1.836 0-1.836-1.347 0-1.101 1.591-1.468l1.469-.245q3.06-.49 3.917-1.47.857-1.101.857-3.672v-41.13q0-2.205-.734-2.938-.613-.857-2.326-1.102l-2.571-.367q-1.591-.122-1.591-1.347 0-.979 1.958-1.346 3.795-.612 6.121-1.959 2.325-1.347 4.529-3.305 1.102-1.102 1.836-1.102 1.102 0 1.102 1.47v53.126q0 2.57.735 3.673.734 1.101 2.815 1.346l3.06.368q1.347.245 1.347 1.346 0 1.47-1.836 1.47zM261.504 90.102q-5.141 0-8.447-3.183-3.305-3.305-3.305-8.691 0-5.265 3.305-9.916 3.305-4.773 9.059-8.569 5.752-3.795 13.098-6.12 1.591-.49 1.591-2.081v-11.14q0-5.876-1.836-8.324-1.836-2.57-5.019-2.57-3.06 0-5.631 2.815-2.448 2.693-3.55 9.18-.612 3.918-2.693 5.754-1.958 1.714-4.04 1.714-3.427 0-3.427-3.427 0-3.55 1.958-6.978 2.082-3.55 5.387-6.366 3.304-2.937 7.222-4.651 3.917-1.714 7.834-1.714 12.12 0 12.119 14.078V77.37q0 5.14 2.571 5.141 1.591 0 2.938-2.08 1.346-2.204 1.346-7.346 0-1.958 1.592-1.958 1.469 0 1.469 2.08 0 8.937-3.183 12.977-3.06 3.917-6.978 3.917-2.937 0-4.651-2.326-1.714-2.448-2.326-5.754-.123-1.224-1.102-1.224-.856-.122-1.714 1.102-2.938 4.04-5.998 6.12-3.06 2.082-7.589 2.082m3.305-5.631q3.183 0 5.876-2.204 2.693-2.325 4.406-6.12 1.714-3.795 1.714-8.57v-8.935q0-2.326-2.571-1.347-7.467 2.693-11.629 7.467-4.04 4.652-4.039 11.262 0 8.447 6.243 8.447M200.409 89q-1.836 0-1.836-1.347 0-1.101 1.591-1.469l2.816-.49q2.57-.49 3.305-1.346.857-.856.857-3.427V8.942q0-2.57-.857-3.428-.734-.856-3.305-1.346l-2.816-.49q-1.591-.367-1.591-1.469 0-1.346 1.836-1.346h22.402q1.836 0 1.836 1.469 0 1.101-1.347 1.346l-3.305.49q-2.57.368-3.427 1.346-.735.98-.735 3.55v68.552q0 4.407 2.448 6.365 2.571 1.959 6.366 1.959 2.816 0 5.753-1.102 3.06-1.224 5.509-4.407 2.448-3.305 3.672-9.548l1.592-8.202q.366-1.59 1.836-1.591 1.713 0 1.469 2.08l-1.469 23.015q-.246 2.814-3.061 2.815zM156.134 89q-1.714 0-1.714-1.224t1.592-1.591l1.836-.368q3.672-.857 1.958-4.04l-8.691-17.137q-.489-.857-1.224-.857-.612-.123-1.102.857l-7.957 14.934q-2.692 5.141.857 5.876l3.183.734q1.591.368 1.591 1.592T144.75 89h-15.669q-1.714 0-1.714-1.347t1.469-1.713l1.469-.368q2.325-.612 3.917-1.836 1.592-1.346 4.04-5.876l9.058-16.648q.98-1.836.245-3.55l-11.629-22.89q-1.347-2.817-2.326-3.796-.857-.979-2.081-1.224l-1.836-.367q-1.592-.367-1.592-1.591 0-1.225 1.714-1.224h18.117q1.714 0 1.714 1.224t-1.591 1.591l-1.836.367q-3.673.857-1.959 4.04l8.324 16.158q.49.858 1.102.857.612 0 1.101-.857l7.345-13.955q2.694-5.14-.857-5.876l-3.182-.734q-1.592-.367-1.592-1.591 0-1.225 1.714-1.224h15.669q1.714 0 1.714 1.346t-1.469 1.714l-1.469.367q-2.326.49-3.918 1.836-1.59 1.224-4.039 5.876l-8.447 15.669q-1.101 1.836-.122 3.795l11.996 23.625q1.47 2.939 2.326 3.918a3.98 3.98 0 0 0 2.081 1.101l1.836.368q1.592.367 1.592 1.59 0 1.225-1.714 1.225z"/><path fill="#170000" d="M95.099 90.102q-5.141 0-8.447-3.183-3.305-3.305-3.305-8.691 0-5.265 3.305-9.916 3.305-4.773 9.059-8.569 5.753-3.795 13.098-6.12 1.591-.49 1.591-2.081v-11.14q0-5.876-1.836-8.324-1.836-2.57-5.019-2.57-3.06 0-5.63 2.815-2.45 2.693-3.55 9.18-.613 3.918-2.694 5.754-1.959 1.714-4.04 1.714-3.427 0-3.427-3.427 0-3.55 1.959-6.978 2.08-3.55 5.386-6.366 3.304-2.937 7.222-4.651 3.917-1.714 7.835-1.714 12.118 0 12.118 14.078V77.37q0 5.14 2.571 5.141 1.591 0 2.938-2.08 1.347-2.204 1.347-7.346 0-1.958 1.591-1.958 1.469 0 1.469 2.08 0 8.937-3.183 12.977-3.06 3.917-6.977 3.917-2.939 0-4.652-2.326-1.714-2.448-2.326-5.754-.123-1.224-1.102-1.224-.857-.122-1.713 1.102-2.938 4.04-5.999 6.12-3.06 2.082-7.59 2.082m3.305-5.631q3.183 0 5.876-2.204 2.692-2.325 4.407-6.12 1.713-3.795 1.713-8.57v-8.935q0-2.326-2.57-1.347-7.467 2.693-11.63 7.467-4.04 4.652-4.04 11.262 0 8.447 6.244 8.447M37.56 87.776q-.49 0-1.102-.367-.611-.368-.857-1.592L17.117 10.778q-.123-.857-.734-.734-.612 0-.612.857l-2.449 67.572q-.122 3.427 1.102 5.263 1.224 1.714 4.285 2.204l1.59.245q1.592.121 1.592 1.468T20.055 89H2.55Q.714 89 .714 87.653t1.591-1.469l1.592-.244q3.182-.49 4.284-2.204 1.224-1.836 1.347-5.264l2.448-69.53q.122-2.57-.735-3.428-.856-.856-3.672-1.346l-2.816-.49q-1.59-.367-1.59-1.469 0-1.346 1.835-1.346h14.69q3.795 0 4.652 3.672L39.15 65.62q.245.857.735.857.612 0 .734-.857L56.044 3.923q.735-3.06 3.918-3.06h14.444q1.837 0 1.837 1.346 0 1.102-1.592 1.47l-2.815.489q-2.571.49-3.428 1.346t-.734 3.428l2.448 71.979q.122 2.57.857 3.427.734.857 3.305 1.347l2.815.49q1.592.366 1.592 1.468Q78.69 89 76.854 89H54.699q-1.836 0-1.836-1.347 0-1.101 1.591-1.469l2.816-.49q2.57-.49 3.427-1.346.856-.856.735-3.427L59.35 10.9q0-.857-.613-.857-.489-.123-.734.612L39.396 85.817q-.245 1.224-.857 1.592-.49.367-.979.367"/></svg>
